X:15
T:Norfolk Hornpipe
M:C
L:1/8
B:Empire Violin Collection of Hornpipes
H:Published by Thomas Craig
H:Music Publisher, &c.
H:George Street, Aberdeen, N.B.
Z:Peter Dunk December 2011
R:hornpipe
Q:1/4=130
K:G
D>B, | G,>B,D>G G>GD>B, | C>EA>B c>BA>c | B>dg>d e>cA>G | (3FGA (3GFE (3DED (3CB,A, |!
G,>B,D>G B>GD>B, | C>EA>B c>de>f | {a/}g>fg>e (3ded (3cBA | G>Bd>B g2 :|!
|: B>c | c>g{ag}f>g e>g{ag}f>g | b>ga>f g>ed>B | (3cde (3ABc (3Bcd A>B | (3AGF (3GFE D2 B>c |!
d>g{ag}f>g e>g{ag}f>g | {a/}b>ga>f g>ed>B | c>de>f {a/}g>fg>e | d>Bc>A G2 :|

